src/assets/img/logo-white.svg

<?xml version="1.0" encoding="UTF-8"?>
<svg width="380px" height="192px" viewBox="0 0 380 192" version="1.1" xmlns="http://www.w3.org/2000/svg" xmlns:xlink="http://www.w3.org/1999/xlink">
    <!-- Generator: Sketch 41.2 (35397) - http://www.bohemiancoding.com/sketch -->
    <title>ZZ</title>
    <desc>Created with Sketch.</desc>
    <defs></defs>
    <g id="Page-1" stroke="none" stroke-width="1" fill="none" fill-rule="evenodd">
        <g id="ZZ" fill="#FFFFFF">
            <path d="M163.835625,21.5038087 C163.749772,21.4990267 163.664159,21.4942446 163.578306,21.4894625 C149.195461,49.6991163 134.812617,77.9087701 120.429533,106.118424 C120.912126,105.835804 121.22947,105.445348 121.534857,105.045567 C135.415738,86.8761026 149.29375,68.7044862 163.183001,50.5414775 C163.636657,49.948262 163.908803,49.3655671 163.904738,48.5908722 C163.864322,40.783191 163.8538,32.9752707 163.836103,25.1673504 C163.833233,23.9462496 163.835625,22.7249096 163.835625,21.5038087 L163.835625,21.5038087 Z M10.6296211,18.2120727 C10.5306155,18.2347875 10.431849,18.2572633 10.3330824,18.279739 C10.3330824,18.6620653 10.3318867,19.0441524 10.3333216,19.4264787 C10.3514965,24.6444314 10.3684758,29.8623841 10.3892813,35.0800976 C10.4287401,44.9976269 10.468438,54.9149171 10.51818,64.8319681 C10.5203323,65.2836344 10.6217294,65.7348224 10.6815154,66.2254625 C11.1851529,66.2254625 11.5417168,66.2276144 11.8982807,66.2252234 C17.1563424,66.1876842 22.4141649,66.1314949 27.6719874,66.1159532 C35.0022329,66.0941948 42.3327174,66.103998 49.6629629,66.0951512 C50.1118364,66.094673 50.5604707,66.050678 51.269533,66.0131387 C37.5933593,49.9272209 24.1113707,34.0696468 10.6296211,18.2120727 L10.6296211,18.2120727 Z M8.16356702,185.053617 C7.90768282,184.10892 8.65763877,183.900182 9.19786532,183.55683 C36.4270535,166.26344 63.6586331,148.974354 90.8885387,131.68216 C91.2049264,131.481313 91.5007476,131.248187 92.0292561,130.870882 C63.523995,135.34355 35.3049893,139.771505 6.92671366,144.224327 C6.94345374,157.878324 6.83583889,171.438832 7.08933166,185.053617 L8.16356702,185.053617 Z M167.599514,125.609413 C166.919627,125.573786 166.337072,125.51688 165.754517,125.516641 C149.375298,125.511859 132.995839,125.551789 116.616858,125.469059 C114.28066,125.457343 112.28261,125.871231 110.401503,127.285527 C108.755952,128.522887 106.939892,129.533577 104.961452,130.796043 C105.419653,131.146807 105.786978,131.385433 106.10504,131.677617 C112.440446,137.502175 118.771786,143.331276 125.100974,149.162768 C134.09638,157.451286 143.09059,165.741477 152.083366,174.032865 C155.715486,177.381746 159.340672,180.73804 162.975184,184.084053 C163.263114,184.349218 163.587393,184.743261 163.915738,184.765497 C165.127003,184.847271 166.347116,184.798015 167.599514,184.798015 L167.599514,125.609413 Z M10.9548571,136.704287 C40.7053417,132.041532 70.153309,127.426359 99.6010371,122.808795 C99.8363549,122.771734 100.066172,122.700481 100.297425,122.641423 C100.332579,122.632576 100.374907,122.611296 100.392126,122.582603 C100.41054,122.55152 100.403844,122.505373 100.408149,122.465682 C98.5667388,120.011047 58.8958389,74.7882321 58.0791617,74.2416418 C42.4262228,94.989597 26.7706532,115.740661 10.9548571,136.704287 L10.9548571,136.704287 Z M19.741012,184.888875 C19.7673178,184.987385 19.7936237,185.086135 19.8201687,185.184885 C20.3728307,185.184885 20.9257319,185.188471 21.478394,185.184406 C26.5769465,185.145672 31.6757382,185.081114 36.7745299,185.070115 C59.6424468,185.020382 82.5103638,184.990255 105.37852,184.944347 C121.115159,184.912546 136.851799,184.866399 152.588438,184.826708 C152.886172,184.825991 153.184146,184.826469 153.765266,184.826469 C135.41789,167.916362 117.302485,151.220013 99.1480982,134.487799 C72.632516,151.317806 46.186764,168.10334 19.741012,184.888875 L19.741012,184.888875 Z M106.314052,118.799749 C125.336531,81.4974725 144.279854,44.3506132 163.223177,7.20375392 C163.166261,7.16501918 163.109105,7.12628443 163.052189,7.08778879 C129.7375,27.7886406 96.4228118,48.4894924 63.0150963,69.2484463 C77.4505525,85.7683367 91.8102001,102.201433 106.314052,118.799749 L106.314052,118.799749 Z M150.237173,7.04690212 C150.213259,6.96393325 150.189344,6.88072528 150.165669,6.79775641 C149.743101,6.79775641 149.320773,6.7965609 148.898444,6.79799552 C136.346487,6.83768667 123.79453,6.89674521 111.242334,6.91276513 C95.5011504,6.93284981 79.7599673,6.90248369 64.0187841,6.92232927 C51.7449515,6.93787098 39.4713581,6.99047372 27.1975255,7.03996812 C21.9784443,7.06100922 16.7593631,7.11528568 11.5402819,7.16143263 C11.2050019,7.16430187 10.869961,7.22862067 10.2744921,7.29222217 L58.5191869,64.0388623 C89.1346558,45.0148423 119.685795,26.0309918 150.237173,7.04690212 L150.237173,7.04690212 Z M120.979086,118.832028 C136.164738,118.834419 151.350389,118.832745 166.53604,118.837766 C167.290062,118.838005 168.065606,118.791859 168.794756,118.942972 C172.030615,119.614135 174.25633,122.291375 174.368249,125.66608 C174.44621,128.015032 174.438079,130.36757 174.438797,132.718434 C174.443819,150.013497 174.439753,167.308561 174.44334,184.603624 C174.444058,187.285886 173.355235,189.382105 171.094127,190.827007 C169.889797,191.59668 168.542699,191.873323 167.107834,191.871888 C156.665128,191.863042 146.222422,191.880735 135.779955,191.882648 C93.5310812,191.890299 51.2824468,191.89556 9.03381246,191.900581 C8.35631718,191.900581 7.67690875,191.851804 7.00204405,191.888626 C3.67387539,192.070822 -0.00440025173,189.152566 -9.56576462e-05,184.928566 C0.00899181875,176.480327 -0.00750912524,168.031849 0.0113832599,159.583609 C0.0242970422,153.845368 0.106562618,148.107365 0.100584015,142.369124 C0.0986708622,140.567719 0.653963499,139.043674 1.73202517,137.620292 C8.49047703,128.69552 15.2197533,119.748511 21.9640957,110.812979 C31.2055809,98.5694526 40.451849,86.3299905 49.6945299,74.0874202 C49.9076073,73.8050391 50.1010749,73.5080727 50.3330447,73.1759582 C49.9375003,72.7878934 49.4814525,72.9182047 49.0770598,72.9167701 C45.9284884,72.9067278 42.7796778,72.9093579 39.6311064,72.916531 C30.5838062,72.9370939 21.536506,72.9662645 12.4892058,72.9784588 C11.5362165,72.9798934 10.5717483,72.9684164 9.63191189,72.8306929 C6.45679547,72.3653978 4.06774575,69.821338 3.79416488,66.6316991 C3.70257269,65.5621898 3.71118188,64.4826381 3.70663814,63.4076294 C3.64637382,49.5798037 3.59328383,35.751739 3.53588924,21.9239133 C3.51651857,17.2621151 3.47586407,12.6000777 3.47969037,7.93827945 C3.4804078,7.02944757 3.5232146,6.08977136 3.75064065,5.21728319 C4.53455507,2.2103193 7.02165387,0.283385305 10.3113203,0.0280229141 C10.7477583,-0.00592976339 11.1875444,0.00076513076 11.6256564,0.00076513076 C62.0054298,-0.000430386052 112.384964,-0.000430386052 162.764738,0.0024388543 C163.361641,0.0024388543 163.965958,-0.00832079701 164.554253,0.0744089664 C168.258595,0.593980573 170.728954,3.38885978 170.845417,7.19538531 C170.879376,8.30984608 170.831069,9.42645878 170.828199,10.5423542 C170.79711,22.9355597 170.739237,35.3292433 170.759325,47.7224488 C170.763869,50.4750067 169.990955,52.8141549 168.30212,55.0105584 C159.267255,66.7598585 150.308438,78.5674999 141.314706,90.3483616 C134.327632,99.5007601 127.327406,108.643355 120.336267,117.792646 C120.128451,118.064506 119.956267,118.363385 119.684121,118.776078 C120.214064,118.799749 120.596695,118.831789 120.979086,118.832028 Z" id="Fill-1"></path>
            <path d="M321.474141,135.033074 C321.920145,135.490479 322.241554,135.833114 322.576834,136.161642 C328.692706,142.15668 334.815274,148.144785 340.925884,154.145323 C351.128968,164.16471 361.324399,174.191988 371.523417,184.21544 C371.722146,184.410788 371.904852,184.63148 372.1318,184.786897 C372.335551,184.926533 372.589761,184.992526 372.957325,185.148421 L372.957325,135.051246 C371.369887,134.64214 323.01112,134.596471 321.474141,135.033074 M319.595664,127.716272 C320.191611,127.754768 320.541957,127.793981 320.892782,127.797567 C324.797288,127.837497 328.701794,127.907555 332.6063,127.901816 C344.64051,127.883644 356.674959,127.837019 368.709169,127.795893 C369.076495,127.794459 369.44382,127.733009 369.979025,127.684471 C369.622939,127.176616 369.408666,126.848327 369.171913,126.537014 C363.552744,119.148959 357.927596,111.765448 352.311296,104.375241 C349.467395,100.632556 346.645494,96.8731337 343.798483,93.1326007 C343.019113,92.108521 342.581479,91.0038635 342.697225,89.6983592 C342.793839,88.6104389 343.367546,87.7637738 344.001995,86.9324115 C353.474733,74.5172085 362.940057,62.0965061 372.426186,49.6913455 C372.891082,49.0837838 373.079289,48.485069 373.077376,47.7318934 C373.056809,39.7630565 373.062788,31.7939806 373.061592,23.8251437 C373.061353,23.4432956 373.061592,23.0616867 373.061592,22.6798386 C372.988175,22.6633405 372.914758,22.6468423 372.84158,22.6303442 C355.129849,57.5858212 337.418357,92.5412981 319.595664,127.716272 M276.99477,57.5470864 C304.246916,40.8021998 331.326161,24.163475 358.405167,7.52379377 C358.641202,7.37865803 358.870302,7.22156712 359.099402,7.06543263 C359.126425,7.04702167 359.143883,6.99800548 359.145079,6.96261818 C359.146035,6.92531806 359.121643,6.88753973 359.071422,6.74383861 C321.350743,6.96835666 283.592278,6.83517609 245.57793,7.03124085 C256.118685,23.9800827 266.518106,40.7017763 276.99477,57.5470864 M230.61803,184.866519 C230.655098,184.952357 230.692404,185.038195 230.729471,185.124033 C230.92533,185.136466 231.121189,185.159659 231.317288,185.15942 C274.91039,185.140292 318.503493,185.11949 362.096595,185.097732 C362.134858,185.097732 362.174795,185.083624 362.211624,185.069996 C362.247017,185.057084 362.286954,185.043216 362.311347,185.016915 C362.336935,184.989179 362.346501,184.946379 362.420157,184.785223 C345.916822,168.589557 329.380006,152.361134 312.799906,136.09015 C285.365771,152.37285 257.991901,168.619684 230.61803,184.866519 M315.825079,120.064486 C334.881278,82.4836543 353.820774,45.1333181 372.757401,7.7815472 C372.864059,7.57137534 372.935563,7.34303163 373.017351,7.12090461 C373.029308,7.08838655 373.013046,7.04032677 372.997741,7.00470037 C372.982914,6.97026949 372.952542,6.9427726 372.890843,6.86291208 C372.779402,6.86291208 372.594065,6.80457086 372.485733,6.8712807 C341.877917,25.6614575 311.275362,44.4602421 280.580736,63.3152159 C292.330604,82.2345086 304.024751,101.063898 315.825079,120.064486 M215.056683,126.807679 C215.056683,127.453497 215.056444,127.925727 215.056683,128.397956 C215.058357,133.817233 215.069119,139.236511 215.059792,144.65555 C215.03803,157.526245 215.005507,170.3967 214.983266,183.267395 C214.98231,183.849851 215.040661,184.432307 215.070554,185.000416 C216.090503,185.321532 216.876092,185.152008 217.684638,184.669976 C228.426274,178.266309 239.177237,171.878424 249.931548,165.495799 C268.186853,154.661308 286.445985,143.833751 304.703442,133.003086 C306.72421,131.804222 308.734216,130.58623 310.771246,129.41534 C311.587684,128.945741 311.842373,128.128247 312.071233,127.357856 C312.173587,127.01283 311.824437,126.481542 311.584097,126.094434 C305.808288,116.789009 300.015022,107.494105 294.233474,98.192267 C278.59034,73.0249644 262.950554,47.8557489 247.310768,22.6865335 C244.24207,17.7476144 241.176243,12.8070217 238.120459,7.8599731 C237.812442,7.36144259 237.523077,7.01306899 236.835299,7.02143761 C231.097992,7.09077758 225.360447,7.11683985 219.622901,7.16609514 C219.320623,7.16872528 219.019062,7.2626929 218.699566,7.31720847 L218.699566,46.4063044 C219.369408,46.4436045 219.9137,46.5000329 220.457992,46.500272 C232.61321,46.5057714 244.768666,46.5038585 256.923883,46.5081624 C257.481089,46.5084015 258.063644,46.4579507 258.588804,46.5999781 C259.301693,46.7929345 260.053562,47.034668 260.6409,47.4595547 C261.779704,48.2835049 262.216381,49.5103442 262.209446,50.9083816 C262.191032,54.7335572 262.140334,58.559211 262.19151,62.3836692 C262.219012,64.4311113 261.632391,66.1607851 260.362536,67.784536 C254.719931,74.9990017 249.139025,82.2617664 243.53803,89.5087502 C242.716331,90.5720428 241.90635,91.6441823 241.076281,92.7311462 C241.343166,93.0969743 241.544764,93.3884413 241.761429,93.6684314 C248.414896,102.271849 255.067646,110.875983 261.730441,119.471988 C262.066199,119.905243 262.250579,120.344237 262.222121,120.894175 C262.191271,121.490499 262.235991,122.091365 262.193902,122.686255 C262.037262,124.914459 260.353927,126.518364 258.125343,126.585791 C257.846501,126.59416 257.56742,126.587704 257.288339,126.588421 C243.73915,126.628591 230.189962,126.667565 216.640774,126.712038 C216.173008,126.713712 215.705481,126.767032 215.056683,126.807679 M253.342461,119.790474 C252.890957,119.181477 252.619289,118.801542 252.333751,118.431888 C246.7318,111.180601 241.124827,103.9329 235.526941,96.6785036 C233.589396,94.167201 233.538936,91.5389768 235.481504,88.9982645 C241.168112,81.5609544 246.891787,74.1518585 252.601592,66.7324812 C253.37905,65.7222695 254.179226,64.728795 254.929899,63.6992159 C255.15039,63.3972284 255.361076,62.9988822 255.365381,62.6423791 C255.400535,59.6944737 255.386904,56.7458511 255.384512,53.7974675 C255.384512,53.722389 255.344575,53.6473106 255.279767,53.4199233 C254.800044,53.3840578 254.264122,53.3092184 253.7282,53.3087402 C242.688829,53.3020453 231.649459,53.3051537 220.610088,53.3001325 C219.893612,53.2996543 219.175223,53.2750267 218.461378,53.2176418 C214.670227,52.9127851 211.931548,49.990942 211.890654,46.16481 C211.850957,42.4594252 211.859087,38.7535621 211.84713,35.0479382 C211.818194,26.0430665 211.781844,17.0381948 211.773235,8.03332304 C211.772278,7.0848 211.81078,6.10423711 212.044663,5.1932533 C212.805381,2.23243636 215.338395,0.246443836 218.488402,0.0252732254 C218.925079,-0.00533200498 219.364626,0.000645579079 219.802977,0.000645579079 C270.45657,-0.000310834371 321.110403,-0.00102814446 371.764235,0.00734047323 C372.55652,0.00734047323 373.361957,0.0510963885 374.138936,0.194797509 C377.478823,0.811923288 379.854481,3.62210511 379.858546,7.02382864 C379.875765,20.9303193 379.864286,34.83681 379.867395,48.7435397 C379.867873,50.4502595 379.252316,51.9054426 378.222801,53.250399 C373.306954,59.6722371 368.42124,66.1172682 363.515677,72.5469968 C359.238345,78.1530142 354.948099,83.7494675 350.666702,89.3523766 C350.4773,89.6000877 350.317313,89.8700354 350.109257,90.1808697 C350.354619,90.5254177 350.573436,90.8498809 350.809711,91.1611935 C359.917992,103.153662 369.019339,115.151629 378.148188,127.128317 C379.314015,128.657861 379.937225,130.288546 379.773889,132.221458 C379.717212,132.892621 379.803065,133.574543 379.803543,134.251445 C379.810478,150.509039 379.816696,166.766394 379.815022,183.023749 C379.814783,183.93808 379.810239,184.860541 379.698081,185.765547 C379.255903,189.334404 376.327823,191.867226 372.742574,191.8689 C344.964789,191.881572 317.187004,191.897114 289.409459,191.917677 C265.099503,191.935609 240.789547,191.96478 216.479591,191.970758 C215.452228,191.970997 214.393298,191.913612 213.403241,191.665901 C210.471334,190.931854 208.490982,188.503281 208.24849,185.501338 C208.200422,184.906449 208.177464,184.307973 208.177225,183.710932 C208.17292,173.908651 208.158332,164.106369 208.17866,154.304088 C208.197791,145.100043 208.253033,135.896237 208.296797,126.692192 C208.314733,122.942334 211.040975,120.019296 214.790277,119.732611 C215.464663,119.681203 216.143833,119.6714 216.82061,119.673313 C228.417187,119.709418 240.014003,119.750543 251.610579,119.790235 C252.084802,119.791908 252.559264,119.790474 253.342461,119.790474" id="Fill-4"></path>
        </g>
    </g>
</svg>

<svg width="380" height="192" viewBox="0 0 380 192" xmlns="http://www.w3.org/2000/svg"><title>ZZ</title><g fill="#FFF" fill-rule="evenodd"><path d="M163.836 21.504l-.258-.015-43.148 84.628c.482-.282.8-.673 1.105-1.072 13.88-18.17 27.76-36.342 41.648-54.505.454-.592.726-1.174.722-1.95-.04-7.807-.05-15.615-.07-23.423-.002-1.22 0-2.442 0-3.663zM10.63 18.212l-.297.068v1.146c.018 5.218.035 10.436.056 15.654.04 9.918.078 19.835.128 29.752.002.452.104.903.164 1.393.503 0 .86.003 1.216 0 5.258-.037 10.516-.094 15.774-.11 7.33-.02 14.66-.01 21.99-.02.45 0 .898-.044 1.608-.082-13.677-16.086-27.16-31.943-40.64-47.8zM8.164 185.054c-.256-.945.494-1.154 1.034-1.497 27.23-17.294 54.46-34.583 81.69-51.875.317-.2.613-.434 1.14-.81l-85.1 13.352c.015 13.654-.092 27.215.16 40.83h1.076zM167.6 125.61c-.68-.036-1.263-.093-1.845-.093-16.38-.005-32.76.035-49.138-.048-2.336-.013-4.334.4-6.215 1.816-1.646 1.237-3.462 2.248-5.44 3.51.458.35.825.59 1.143.882 6.335 5.824 12.667 11.653 18.996 17.485 8.996 8.288 17.99 16.578 26.983 24.87 3.632 3.35 7.258 6.705 10.892 10.05.288.266.612.66.94.682 1.212.082 2.432.033 3.685.033v-59.19zM10.955 136.703c29.75-4.662 59.198-9.278 88.646-13.895.236-.038.466-.11.697-.17.036-.007.078-.03.095-.057.02-.03.012-.078.016-.117-1.84-2.455-41.512-47.678-42.33-48.224-15.652 20.748-31.307 41.5-47.123 62.462zm8.786 48.185l.08.295c.553 0 1.106.003 1.658 0 5.1-.04 10.198-.104 15.297-.115 22.867-.05 45.735-.08 68.604-.126 15.735-.03 31.472-.078 47.208-.117h1.177l-54.617-50.34L19.74 184.89zm86.574-66.09l56.91-111.596-.172-.116c-33.314 20.7-66.63 41.4-100.037 62.16l43.3 49.552zM150.237 7.047c-.024-.083-.048-.166-.07-.25h-1.27c-12.55.04-25.102.1-37.655.116-15.74.02-31.482-.01-47.223.01-12.275.015-24.55.067-36.822.117-5.22.02-10.44.075-15.658.12-.335.004-.67.07-1.266.132L58.52 64.04c30.615-19.025 61.166-38.01 91.717-56.993zM120.98 118.832c15.185.002 30.37 0 45.556.006.754 0 1.53-.046 2.26.105 3.235.67 5.46 3.348 5.572 6.723.078 2.35.07 4.702.07 7.052.006 17.295.002 34.59.005 51.886 0 2.682-1.088 4.778-3.35 6.223-1.203.77-2.55 1.046-3.985 1.045-10.443-.01-20.886.01-31.328.01-42.25.008-84.498.014-126.746.02-.678 0-1.357-.05-2.032-.013-3.328.18-7.006-2.737-7.002-6.96.01-8.45-.008-16.898.01-25.346.014-5.74.097-11.477.09-17.215 0-1.802.554-3.326 1.632-4.75 6.758-8.924 13.488-17.87 20.232-26.807 9.242-12.244 18.488-24.483 27.73-36.726.214-.282.407-.58.64-.91-.396-.39-.853-.26-1.257-.26-3.15-.01-6.297-.008-9.446 0-9.046.02-18.093.05-27.14.06-.954.003-1.918-.01-2.858-.146-3.175-.465-5.564-3.01-5.838-6.198-.09-1.07-.083-2.15-.087-3.224-.06-13.828-.114-27.656-.17-41.484-.02-4.662-.06-9.324-.057-13.986 0-.91.043-1.848.27-2.72C4.536 2.21 7.023.282 10.31.027 10.75-.006 11.19 0 11.627 0c50.38 0 100.76 0 151.14.002.596 0 1.2-.01 1.788.072 3.705.52 6.175 3.315 6.29 7.12.035 1.116-.013 2.232-.016 3.348-.03 12.394-.09 24.787-.07 37.18.006 2.753-.767 5.092-2.456 7.29-9.035 11.748-17.994 23.555-26.987 35.336-6.987 9.153-13.988 18.295-20.98 27.445-.207.272-.38.57-.65.983.53.024.912.056 1.294.056zM321.474 135.033c.446.457.768.8 1.103 1.13 6.116 5.994 12.238 11.982 18.35 17.982 10.202 10.02 20.397 20.047 30.596 30.07.2.196.382.416.61.572.203.14.457.206.824.36v-50.096c-1.587-.408-49.946-.454-51.483-.017m-1.878-7.317c.596.04.946.078 1.297.082 3.904.04 7.81.11 11.713.104 12.035-.018 24.07-.065 36.103-.106.366-.002.734-.063 1.27-.112-.357-.507-.57-.836-.808-1.147-5.62-7.388-11.244-14.772-16.86-22.162-2.845-3.742-5.667-7.502-8.514-11.242-.78-1.024-1.217-2.13-1.1-3.435.096-1.088.67-1.934 1.304-2.766 9.473-12.415 18.938-24.835 28.424-37.24.465-.608.653-1.207.65-1.96-.02-7.97-.013-15.938-.014-23.907V22.68l-.22-.05c-17.712 34.956-35.424 69.91-53.246 105.086m-42.6-70.17l81.41-50.022c.235-.145.464-.302.693-.46.026-.017.044-.066.045-.1 0-.04-.023-.076-.074-.22-37.72.224-75.478.09-113.492.287 10.54 16.95 20.94 33.672 31.417 50.517m-46.377 127.32c.037.085.074.17.11.257.197.012.393.036.59.035 43.592-.02 87.185-.04 130.78-.062.037 0 .077-.014.114-.028.035-.013.075-.027.1-.053.025-.028.035-.07.108-.232L312.8 136.09l-82.182 48.777m85.207-64.803c19.056-37.58 37.996-74.93 56.932-112.282.107-.21.18-.44.26-.66.012-.034-.004-.082-.02-.117-.014-.035-.044-.062-.106-.142-.11 0-.296-.058-.404.008-30.608 18.79-61.21 37.59-91.905 56.445l35.245 56.75m-100.768 6.743v1.59c0 5.42.012 10.84.003 16.258-.022 12.87-.054 25.74-.077 38.61 0 .584.058 1.166.088 1.734 1.02.322 1.806.152 2.615-.33 10.74-6.404 21.492-12.792 32.247-19.174 18.255-10.835 36.514-21.662 54.77-32.493 2.022-1.2 4.032-2.417 6.07-3.588.816-.47 1.07-1.287 1.3-2.057.102-.345-.248-.876-.488-1.264-5.776-9.305-11.57-18.6-17.35-27.902-15.644-25.167-31.283-50.336-46.923-75.505-3.068-4.94-6.134-9.88-9.19-14.827-.308-.5-.597-.847-1.285-.84-5.737.07-11.475.097-17.212.146-.302.003-.604.097-.923.15v39.09c.67.038 1.214.094 1.758.094 12.155.006 24.31.004 36.466.008.557 0 1.14-.05 1.665.092.712.193 1.464.435 2.05.86 1.14.824 1.576 2.05 1.57 3.448-.02 3.826-.07 7.65-.018 11.476.027 2.047-.56 3.777-1.83 5.4C254.72 75 249.14 82.263 243.54 89.51c-.822 1.062-1.632 2.134-2.462 3.22.267.367.47.658.685.938 6.655 8.604 13.308 17.208 19.97 25.804.336.433.52.872.492 1.422-.03.596.014 1.197-.028 1.792-.157 2.228-1.84 3.832-4.07 3.9-.277.008-.557.002-.836.002-13.55.04-27.098.08-40.647.124-.467.002-.935.055-1.583.096m38.285-7.018c-.45-.61-.723-.988-1.008-1.358-5.602-7.25-11.21-14.5-16.807-21.753-1.938-2.513-1.988-5.14-.045-7.682 5.686-7.437 11.41-14.846 17.12-22.266.777-1.01 1.577-2.003 2.328-3.033.22-.303.43-.7.435-1.058.036-2.948.022-5.896.02-8.845 0-.075-.04-.15-.105-.377-.48-.036-1.016-.11-1.552-.11-11.04-.008-22.08-.005-33.118-.01-.716 0-1.435-.025-2.15-.082-3.79-.305-6.528-3.227-6.57-7.053-.04-3.706-.03-7.41-.043-11.117-.03-9.005-.065-18.01-.074-27.015 0-.948.038-1.93.272-2.84.76-2.96 3.293-4.947 6.443-5.168.437-.03.877-.024 1.315-.024 50.654 0 101.307 0 151.96.007.794 0 1.6.044 2.376.188 3.34.617 5.714 3.427 5.72 6.83.016 13.905.004 27.812.007 41.72 0 1.705-.615 3.16-1.644 4.505-4.916 6.422-9.802 12.867-14.707 19.297-4.278 5.606-8.568 11.202-12.85 16.805-.19.248-.35.518-.557.83.245.343.463.668.7.98 9.108 11.992 18.21 23.99 27.338 35.966 1.166 1.53 1.79 3.16 1.626 5.093-.057.673.03 1.355.03 2.03.006 16.26.013 32.516.01 48.774 0 .914-.004 1.837-.116 2.742-.442 3.568-3.37 6.1-6.955 6.103-27.778.012-55.556.027-83.334.048-24.31.018-48.62.047-72.93.053-1.028 0-2.087-.056-3.077-.304-2.932-.734-4.912-3.163-5.155-6.165-.048-.594-.07-1.192-.07-1.79-.005-9.8-.02-19.604 0-29.406.02-9.204.075-18.408.12-27.612.017-3.75 2.743-6.673 6.492-6.96.675-.05 1.354-.06 2.03-.06 11.597.037 23.194.08 34.79.118.475.002.95 0 1.732 0"/></g></svg>
